svgs/1F916.svg

<svg xmlns="http://www.w3.org/2000/svg" xmlns:xlink="http://www.w3.org/1999/xlink" preserveAspectRatio="none" viewBox="0 0 72 72"><defs><path id="c" fill="#E06055" d="M13.65 49.55q-3.85 0-6.6 5.1-2.7 5.1-2.7 12.25 0 7.2 2.7 12.3 2.75 5.05 6.6 5.05 3.85 0 6.6-5.05Q23 74.1 23 66.9q0-7.15-2.75-12.25t-6.6-5.1z"/><path id="d" fill="#E06055" d="M114.35 49.55q-3.85 0-6.6 5.1Q105 59.75 105 66.9q0 7.2 2.75 12.3 2.75 5.05 6.6 5.05 3.85 0 6.6-5.05 2.75-5.1 2.75-12.3 0-7.15-2.75-12.25t-6.6-5.1z"/><path id="e" fill="#78A3AD" d="M100.05 24.35q-3.25-3.1-7.6-3.1H35.7q-4.35 0-7.6 3.1L17.05 35.2q-3.25 3.1-3.25 7.75v54q0 4.5 3.25 7.75l11.05 10.8q3.2 3.1 7.6 3.1h56.75q4.4 0 7.6-3.1l11.05-10.8q3.25-3.15 3.25-7.75v-54q0-4.6-3.25-7.75l-11.05-10.85z"/><path id="f" fill="#546E7A" d="M40.25 41.3q-6.05 0-10.35 4.3-4.3 4.25-4.3 10.3 0 6.05 4.3 10.35t10.35 4.3q6.1 0 10.35-4.3Q54.9 62 54.9 55.9q0-6.05-4.3-10.3-4.3-4.3-10.35-4.3z"/><path id="g" fill="#FFF" d="M22.9 30q-2.25 0-3.85 1.6t-1.6 3.85q0 2.25 1.6 3.85t3.85 1.6q2.25 0 3.85-1.6t1.6-3.85q0-2.25-1.6-3.85T22.9 30z"/><path id="h" fill="#546E7A" d="M97.25 45.6q-4.25-4.3-10.3-4.3-6.05 0-10.35 4.3-4.3 4.25-4.3 10.3 0 6.1 4.3 10.35 4.3 4.3 10.35 4.3t10.3-4.3q4.3-4.3 4.3-10.35t-4.3-10.3z"/><path id="i" fill="#FFF" d="M54.85 35.45q0-2.35-1.7-4-1.65-1.7-4-1.7t-4 1.7q-1.65 1.65-1.65 4t1.65 4q1.65 1.65 4 1.65t4-1.65q1.7-1.65 1.7-4z"/><path id="j" fill="#E06055" d="M36.9 41q-.3-.7-1.05-.75-.8 0-1.1.7l-3 7.3q-.25.55.1 1.1.35.5.95.5h5.95q.65 0 .95-.5.35-.5.15-1.1L36.9 41z"/><g id="k"><path fill="#546E7A" d="M24.35 53.35q-2.2 0-3.9 1.4-1.8 1.7-1.8 3.75 0 2.2 1.8 3.8 1.7 1.5 3.9 1.5H47.6q2.25 0 4-1.5h.05q1.7-1.65 1.7-3.8 0-2.05-1.7-3.75h-.05q-1.7-1.4-4-1.4H24.35m10.4 2.6v5.15H31.6v-5.15h3.15m2.45 0h3.1v5.15h-3.1v-5.15m-13.6.2v4.9q-.8-.2-1.3-.75l-.05-.05q-.85-.75-.85-1.75t.85-1.65h.05q.55-.6 1.3-.7m5.6-.2v5.15H26v-5.15h3.2m13.6 5.15v-5.15h3.1v5.15h-3.1m6.95-.85q-.65.6-1.35.8v-4.9q.7.1 1.35.7.85.6.85 1.65 0 1.05-.85 1.75z"/><path fill="#FFF" d="M48.4 61.05q.7-.2 1.35-.8.85-.7.85-1.75t-.85-1.65q-.65-.6-1.35-.7v4.9m-5.6-5.1v5.15h3.1v-5.15h-3.1M29.2 61.1v-5.15H26v5.15h3.2m-5.6-.05v-4.9q-.75.1-1.3.7h-.05q-.85.65-.85 1.65 0 1 .85 1.75l.05.05q.5.55 1.3.75m16.7-5.1h-3.1v5.15h3.1v-5.15m-5.55 5.15v-5.15H31.6v5.15h3.15z"/></g><path id="l" fill="#E06055" d="M39.95 7.65q0-1.65-1.15-2.8T36 3.7q-1.65 0-2.8 1.15t-1.15 2.8q0 1.65 1.15 2.8T36 11.6q1.65 0 2.8-1.15t1.15-2.8z"/><path id="a" fill="none" stroke="#546E7A" stroke-linecap="round" stroke-linejoin="round" stroke-width="4" d="M36 12.75q-2.117-.017-3.55-1.5Q31 9.8 31 7.7q0-2.15 1.45-3.6 1.45-1.45 3.6-1.45 2.1 0 3.55 1.45 1.5 1.45 1.5 3.6 0 2.1-1.5 3.55-1.45 1.5-3.55 1.5H36V11.6"/><path id="b" fill="none" stroke="#546E7A" stroke-linecap="round" stroke-linejoin="round" stroke-width="6" d="M36 12.75v7.35"/></defs><g><use xlink:href="#a"/><use xlink:href="#b"/></g><use transform="matrix(.5625 0 0 .77307 0 -10.05)" xlink:href="#c"/><use transform="matrix(.5625 0 0 .77307 0 -10.05)" xlink:href="#d"/><use transform="translate(0 4) scale(.5625)" xlink:href="#e"/><use transform="translate(.25 4) scale(.5625)" xlink:href="#f"/><use xlink:href="#g"/><use transform="translate(.25 4) scale(.5625)" xlink:href="#h"/><use xlink:href="#i"/><use transform="matrix(1.253 0 0 1 -8.75 0)" xlink:href="#j"/><use xlink:href="#k"/><use transform="matrix(1.27849 0 0 1.27849 -10 -2.1)" xlink:href="#l"/></svg>

<svg xmlns="http://www.w3.org/2000/svg" version="1.1" xmlns:xlink="http://www.w3.org/1999/xlink" preserveAspectRatio="none" x="0px" y="0px" width="72px" height="72px" viewBox="0 0 72 72">
<defs>
<g id="Layer0_1_FILL">
<path fill="#E06055" stroke="none" d="
M 13.65 49.55
Q 9.8 49.55 7.05 54.65 4.35 59.75 4.35 66.9 4.35 74.1 7.05 79.2 9.8 84.25 13.65 84.25 17.5 84.25 20.25 79.2 23 74.1 23 66.9 23 59.75 20.25 54.65 17.5 49.55 13.65 49.55 Z"/>
</g>

<g id="Layer0_2_FILL">
<path fill="#E06055" stroke="none" d="
M 114.35 49.55
Q 110.5 49.55 107.75 54.65 105 59.75 105 66.9 105 74.1 107.75 79.2 110.5 84.25 114.35 84.25 118.2 84.25 120.95 79.2 123.7 74.1 123.7 66.9 123.7 59.75 120.95 54.65 118.2 49.55 114.35 49.55 Z"/>
</g>

<g id="Layer0_3_FILL">
<path fill="#78A3AD" stroke="none" d="
M 100.05 24.35
Q 96.8 21.25 92.45 21.25
L 35.7 21.25
Q 31.35 21.25 28.1 24.35
L 17.05 35.2
Q 13.8 38.3 13.8 42.95
L 13.8 96.95
Q 13.8 101.45 17.05 104.7
L 28.1 115.5
Q 31.3 118.6 35.7 118.6
L 92.45 118.6
Q 96.85 118.6 100.05 115.5
L 111.1 104.7
Q 114.35 101.55 114.35 96.95
L 114.35 42.95
Q 114.35 38.35 111.1 35.2
L 100.05 24.35 Z"/>
</g>

<g id="Layer0_4_MEMBER_0_MEMBER_0_FILL">
<path fill="#546E7A" stroke="none" d="
M 40.25 41.3
Q 34.2 41.3 29.9 45.6 25.6 49.85 25.6 55.9 25.6 61.95 29.9 66.25 34.2 70.55 40.25 70.55 46.35 70.55 50.6 66.25 54.9 62 54.9 55.9 54.9 49.85 50.6 45.6 46.3 41.3 40.25 41.3 Z"/>
</g>

<g id="Layer0_4_MEMBER_0_MEMBER_1_FILL">
<path fill="#FFFFFF" stroke="none" d="
M 22.9 30
Q 20.65 30 19.05 31.6 17.45 33.2 17.45 35.45 17.45 37.7 19.05 39.3 20.65 40.9 22.9 40.9 25.15 40.9 26.75 39.3 28.35 37.7 28.35 35.45 28.35 33.2 26.75 31.6 25.15 30 22.9 30 Z"/>
</g>

<g id="Layer0_4_MEMBER_1_MEMBER_0_FILL">
<path fill="#546E7A" stroke="none" d="
M 97.25 45.6
Q 93 41.3 86.95 41.3 80.9 41.3 76.6 45.6 72.3 49.85 72.3 55.9 72.3 62 76.6 66.25 80.9 70.55 86.95 70.55 93 70.55 97.25 66.25 101.55 61.95 101.55 55.9 101.55 49.85 97.25 45.6 Z"/>
</g>

<g id="Layer0_4_MEMBER_1_MEMBER_1_FILL">
<path fill="#FFFFFF" stroke="none" d="
M 54.85 35.45
Q 54.85 33.1 53.15 31.45 51.5 29.75 49.15 29.75 46.8 29.75 45.15 31.45 43.5 33.1 43.5 35.45 43.5 37.8 45.15 39.45 46.8 41.1 49.15 41.1 51.5 41.1 53.15 39.45 54.85 37.8 54.85 35.45 Z"/>
</g>

<g id="Layer0_5_FILL">
<path fill="#E06055" stroke="none" d="
M 36.9 41
Q 36.6 40.3 35.85 40.25 35.05 40.25 34.75 40.95
L 31.75 48.25
Q 31.5 48.8 31.85 49.35 32.2 49.85 32.8 49.85
L 38.75 49.85
Q 39.4 49.85 39.7 49.35 40.05 48.85 39.85 48.25
L 36.9 41 Z"/>
</g>

<g id="Layer0_6_FILL">
<path fill="#546E7A" stroke="none" d="
M 24.35 53.35
Q 22.15 53.35 20.45 54.75 18.65 56.45 18.65 58.5 18.65 60.7 20.45 62.3 22.15 63.8 24.35 63.8
L 47.6 63.8
Q 49.85 63.8 51.6 62.3
L 51.65 62.3
Q 53.35 60.65 53.35 58.5 53.35 56.45 51.65 54.75
L 51.6 54.75
Q 49.9 53.35 47.6 53.35
L 24.35 53.35
M 34.75 55.95
L 34.75 61.1 31.6 61.1 31.6 55.95 34.75 55.95
M 37.2 55.95
L 40.3 55.95 40.3 61.1 37.2 61.1 37.2 55.95
M 23.6 56.15
L 23.6 61.05
Q 22.8 60.85 22.3 60.3
L 22.25 60.25
Q 21.4 59.5 21.4 58.5 21.4 57.5 22.25 56.85
L 22.3 56.85
Q 22.85 56.25 23.6 56.15
M 29.2 55.95
L 29.2 61.1 26 61.1 26 55.95 29.2 55.95
M 42.8 61.1
L 42.8 55.95 45.9 55.95 45.9 61.1 42.8 61.1
M 49.75 60.25
Q 49.1 60.85 48.4 61.05
L 48.4 56.15
Q 49.1 56.25 49.75 56.85 50.6 57.45 50.6 58.5 50.6 59.55 49.75 60.25 Z"/>

<path fill="#FFFFFF" stroke="none" d="
M 48.4 61.05
Q 49.1 60.85 49.75 60.25 50.6 59.55 50.6 58.5 50.6 57.45 49.75 56.85 49.1 56.25 48.4 56.15
L 48.4 61.05
M 42.8 55.95
L 42.8 61.1 45.9 61.1 45.9 55.95 42.8 55.95
M 29.2 61.1
L 29.2 55.95 26 55.95 26 61.1 29.2 61.1
M 23.6 61.05
L 23.6 56.15
Q 22.85 56.25 22.3 56.85
L 22.25 56.85
Q 21.4 57.5 21.4 58.5 21.4 59.5 22.25 60.25
L 22.3 60.3
Q 22.8 60.85 23.6 61.05
M 40.3 55.95
L 37.2 55.95 37.2 61.1 40.3 61.1 40.3 55.95
M 34.75 61.1
L 34.75 55.95 31.6 55.95 31.6 61.1 34.75 61.1 Z"/>
</g>

<g id="Layer0_7_FILL">
<path fill="#E06055" stroke="none" d="
M 39.95 7.65
Q 39.95 6 38.8 4.85 37.65 3.7 36 3.7 34.35 3.7 33.2 4.85 32.05 6 32.05 7.65 32.05 9.3 33.2 10.45 34.35 11.6 36 11.6 37.65 11.6 38.8 10.45 39.95 9.3 39.95 7.65 Z"/>
</g>

<path id="Layer0_0_1_STROKES" stroke="#546E7A" stroke-width="4" stroke-linejoin="round" stroke-linecap="round" fill="none" d="
M 36 12.75
Q 33.883203125 12.7326171875 32.45 11.25 31 9.8 31 7.7 31 5.55 32.45 4.1 33.9 2.65 36.05 2.65 38.15 2.65 39.6 4.1 41.1 5.55 41.1 7.7 41.1 9.8 39.6 11.25 38.15 12.75 36.05 12.75
L 36 12.75 36 11.6"/>

<path id="Layer0_0_2_STROKES" stroke="#546E7A" stroke-width="6" stroke-linejoin="round" stroke-linecap="round" fill="none" d="
M 36 12.75
L 36 20.1"/>
</defs>

<g id="Layer_1">
<g transform="matrix( 1, 0, 0, 1, 0,0) ">
<use xlink:href="#Layer0_0_1_STROKES"/>

<use xlink:href="#Layer0_0_2_STROKES"/>
</g>

<g transform="matrix( 0.5625, 0, 0, 0.7730712890625, 0,-10.05) ">
<use xlink:href="#Layer0_1_FILL"/>
</g>

<g transform="matrix( 0.5625, 0, 0, 0.7730712890625, 0,-10.05) ">
<use xlink:href="#Layer0_2_FILL"/>
</g>

<g transform="matrix( 0.5625, 0, 0, 0.5625, 0,4) ">
<use xlink:href="#Layer0_3_FILL"/>
</g>

<g transform="matrix( 0.5625, 0, 0, 0.5625, 0.25,4) ">
<use xlink:href="#Layer0_4_MEMBER_0_MEMBER_0_FILL"/>
</g>

<g transform="matrix( 1, 0, 0, 1, 0,0) ">
<use xlink:href="#Layer0_4_MEMBER_0_MEMBER_1_FILL"/>
</g>

<g transform="matrix( 0.5625, 0, 0, 0.5625, 0.25,4) ">
<use xlink:href="#Layer0_4_MEMBER_1_MEMBER_0_FILL"/>
</g>

<g transform="matrix( 1, 0, 0, 1, 0,0) ">
<use xlink:href="#Layer0_4_MEMBER_1_MEMBER_1_FILL"/>
</g>

<g transform="matrix( 1.2530059814453125, 0, 0, 1, -8.75,0) ">
<use xlink:href="#Layer0_5_FILL"/>
</g>

<g transform="matrix( 1, 0, 0, 1, 0,0) ">
<use xlink:href="#Layer0_6_FILL"/>
</g>

<g transform="matrix( 1.2784881591796875, 0, 0, 1.2784881591796875, -10,-2.1) ">
<use xlink:href="#Layer0_7_FILL"/>
</g>
</g>
</svg>
